X:1
T:Aber, Yr
C:John Thomas
M:C
L:1/8
R:Air
N:Indicated tune for song “Fy Ngwen. My Love”
B:John Thomas – Y Caniedydd Cymreig/The Cambrian Minstrel (1845, p. 52)
Z:AK/Fiddler’s Companion
K:Emin
EF G>F E2 CC|D2 B>B d>c c2|A2 B>G F2 DD|A2 c>c e2 {d}d3F|
G4 z2z2||F2 A>A|c2 c>c dB G>E F2D2|G2 B>B d2 d>d|ge c>A B>G G2|
(3FED AG F (3cBA BA G|(3Fed (3cBA G2 FF|E>F G>F E2 CC|
D2 B>B d2c2|A2 B>G F2 D>D|A2 c>c e2{d}d>F|G4 z2z2||

